X:1
T:[ID 4-51r]
T:[ID 4-51r]
T:Bezeichnung standardisiert: Menuet [mit Trio] Menuet Con Trio 7. In dieser Quelle auch als: Menuetto
T:Urheber unbekannt Datum in der hier transkribierten schriftlichen Quelle: 1792
C:Urheber unbekannt
C:Datum in der hier transkribierten schriftlichen Quelle: 1792
%%score 1 2
L:1/8
M:3/4
K:D
V:1 treble nm="Primo"
V:2 treble nm="Secondo"
V:1
 A2 | (df)(df)(df) | g4 ec | (df)(df)(df) | e2 A2 A2 | (df)(df)(df) | g4 ec | defgec | (6:4:1d6 :: %9
 fg | a4 ba | aggffg | a2 a2 ba | (ag)(gf) f2 | (df)(df)(df) | g4 ec | defg e x | (6:4:1d6 :| %18
[M:3/4]"^Trio" !fermata!d4 e2 | f3 g a2 | f3 g a2 |{b} ag f2 e2 | d4 e2 | f3 g a2 | a2 (ag)(gf) | %25
 e6 :: f2 (fe)(ed) | d4 z2 | g2 (gf)(fe) | e4 z2 | a2 a2 a2 | b3 a g2 | f3 g e2 | d4 z2 :| %34
V:2
 !fermata!D2 | (FA)(FA)(FA) | (EG)(EG)(EG) | FAFAFA | E2 A2 A2 | (FA)(FA)(FA) | (EG)(EG)(EG) | %7
 FGABGE | F4 :: de | f4 gf | (fe)(ed) d2 | f2 f2 gf | (fe)(ed) d2 | FAFAFA | EGEGEG | FGABGE | %17
 F4 :|[M:3/4] F4 G2 | d3 e f2 | d3 e f2 |{g} fe d2 A2 | F4 A2 | d3 e f2 | f2 (fe)(ed) | c6 :: %26
 A2 (AG)(GF) | DdAF D2 | e2 (ed)(dA) | AECE A2 | f2 f2 f2 | g3 f e2 | dedGFE | F6 :| %34

